X: 6a
T: I Buried My Wife and Danced on Top of Her Grave
R:jig
M:6/8
K:Dmix
"D"DED F2G|AdB "D7"cAF|"G"~G3 BAG|"D"~F3 GEA|
DED F2G|AdB "D7"cAF|"G"~G3 BAG|"D"AFD D3:|
|:"D"d2e fed|faf "Em"gfe|"D"d2e fed|"A"d^cA d^cA|
"D"d2e fed|faf "Em"gfe|"D"d^cA "G"BAG|"D"AFD D3:|


